svgs/thin/block-brick.svg

<svg xmlns="http://www.w3.org/2000/svg" viewBox="0 0 448 512"><!--! Font Awesome Pro 6.4.0 by @fontawesome - https://fontawesome.com License - https://fontawesome.com/license (Commercial License) Copyright 2023 Fonticons, Inc. --><path d="M128 48v80h88 16 88V48H128zm-16 80V48H64C37.5 48 16 69.5 16 96v32h96zM16 144V248H216V144H16zm0 224h96V264H16V368zm0 16v32c0 26.5 21.5 48 48 48H216V384H128 112 16zm112-16H320V264H128V368zm208 0h96V264H336V368zm96 16H336 320 232v80H384c26.5 0 48-21.5 48-48V384zm0-240H232V248H432V144zm0-16V96c0-26.5-21.5-48-48-48H336v80h96zM0 96C0 60.7 28.7 32 64 32H384c35.3 0 64 28.7 64 64V416c0 35.3-28.7 64-64 64H64c-35.3 0-64-28.7-64-64V96z"/></svg>

<svg xmlns="http://www.w3.org/2000/svg" viewBox="0 0 448 512"><!--! Font Awesome Pro 6.6.0 by @fontawesome - https://fontawesome.com License - https://fontawesome.com/license (Commercial License) Copyright 2024 Fonticons, Inc. --><path d="M128 48l0 80 88 0 16 0 88 0 0-80L128 48zm-16 80l0-80L64 48C37.5 48 16 69.5 16 96l0 32 96 0zM16 144l0 104 200 0 0-104L16 144zm0 224l96 0 0-104-96 0 0 104zm0 16l0 32c0 26.5 21.5 48 48 48l152 0 0-80-88 0-16 0-96 0zm112-16l192 0 0-104-192 0 0 104zm208 0l96 0 0-104-96 0 0 104zm96 16l-96 0-16 0-88 0 0 80 152 0c26.5 0 48-21.5 48-48l0-32zm0-240l-200 0 0 104 200 0 0-104zm0-16l0-32c0-26.5-21.5-48-48-48l-48 0 0 80 96 0zM0 96C0 60.7 28.7 32 64 32l320 0c35.3 0 64 28.7 64 64l0 320c0 35.3-28.7 64-64 64L64 480c-35.3 0-64-28.7-64-64L0 96z"/></svg>
